src/telerik-icons/outline/instagram.svg

<svg width="24" height="24" viewBox="0 0 24 24" fill="none" xmlns="http://www.w3.org/2000/svg">
<path d="M16.875 7.5C17.0821 7.5 17.25 7.33211 17.25 7.125C17.25 6.91789 17.0821 6.75 16.875 6.75C16.6679 6.75 16.5 6.91789 16.5 7.125C16.5 7.33211 16.6679 7.5 16.875 7.5Z" fill="black"/>
<path d="M15.75 12H15C15 13.6569 13.6569 15 12 15V15.75V16.5C14.4853 16.5 16.5 14.4853 16.5 12H15.75ZM12 15.75V15C10.3431 15 9 13.6569 9 12H8.25H7.5C7.5 14.4853 9.51472 16.5 12 16.5V15.75ZM8.25 12H9C9 10.3431 10.3431 9 12 9V8.25V7.5C9.51472 7.5 7.5 9.51472 7.5 12H8.25ZM12 8.25V9C13.6569 9 15 10.3431 15 12H15.75H16.5C16.5 9.51472 14.4853 7.5 12 7.5V8.25ZM7.5 3V3.75H16.5V3V2.25H7.5V3ZM16.5 3V3.75C18.5711 3.75 20.25 5.42893 20.25 7.5H21H21.75C21.75 4.6005 19.3995 2.25 16.5 2.25V3ZM21 7.5H20.25V16.5H21H21.75V7.5H21ZM21 16.5H20.25C20.25 18.5711 18.5711 20.25 16.5 20.25V21V21.75C19.3995 21.75 21.75 19.3995 21.75 16.5H21ZM16.5 21V20.25H7.5V21V21.75H16.5V21ZM7.5 21V20.25C5.42893 20.25 3.75 18.5711 3.75 16.5H3H2.25C2.25 19.3995 4.6005 21.75 7.5 21.75V21ZM3 16.5H3.75V7.5H3H2.25V16.5H3ZM3 7.5H3.75C3.75 5.42893 5.42893 3.75 7.5 3.75V3V2.25C4.6005 2.25 2.25 4.6005 2.25 7.5H3ZM17.25 7.125H16.5C16.5 6.91789 16.6679 6.75 16.875 6.75V7.5V8.25C17.4963 8.25 18 7.74632 18 7.125H17.25ZM16.875 7.5V6.75C17.0821 6.75 17.25 6.91789 17.25 7.125H16.5H15.75C15.75 7.74632 16.2537 8.25 16.875 8.25V7.5ZM16.5 7.125H17.25C17.25 7.33211 17.0821 7.5 16.875 7.5V6.75V6C16.2537 6 15.75 6.50368 15.75 7.125H16.5ZM16.875 6.75V7.5C16.6679 7.5 16.5 7.33211 16.5 7.125H17.25H18C18 6.50368 17.4963 6 16.875 6V6.75Z" fill="black"/>
</svg>

<?xml version="1.0" encoding="UTF-8"?>
<svg id="Layer_1" data-name="Layer 1" xmlns="http://www.w3.org/2000/svg" viewBox="0 0 24 24">
  <path d="m16.88,6.75v.75c-.21,0-.38-.17-.38-.38h1.5c0-.62-.5-1.12-1.12-1.12v.75Zm.38.38h-.75c0-.21.17-.38.38-.38v1.5c.62,0,1.12-.5,1.12-1.12h-.75Zm-.38.38v-.75c.21,0,.38.17.38.38h-1.5c0,.62.5,1.12,1.12,1.12v-.75Zm-.38-.38h.75c0,.21-.17.38-.38.38v-1.5c-.62,0-1.12.5-1.12,1.12h.75Zm-.75,4.87h-.75c0,1.66-1.34,3-3,3v1.5c2.49,0,4.5-2.01,4.5-4.5h-.75Zm-3.75,3.75v-.75c-1.66,0-3-1.34-3-3h-1.5c0,2.49,2.01,4.5,4.5,4.5v-.75Zm-3.75-3.75h.75c0-1.66,1.34-3,3-3v-1.5c-2.49,0-4.5,2.01-4.5,4.5h.75Zm3.75-3.75v.75c1.66,0,3,1.34,3,3h1.5c0-2.49-2.01-4.5-4.5-4.5v.75ZM7.5,3v.75h9v-1.5H7.5v.75Zm9,0v.75c2.07,0,3.75,1.68,3.75,3.75h1.5c0-2.9-2.35-5.25-5.25-5.25v.75Zm4.5,4.5h-.75v9h1.5V7.5h-.75Zm0,9h-.75c0,2.07-1.68,3.75-3.75,3.75v1.5c2.9,0,5.25-2.35,5.25-5.25h-.75Zm-4.5,4.5v-.75H7.5v1.5h9v-.75Zm-9,0v-.75c-2.07,0-3.75-1.68-3.75-3.75h-1.5c0,2.9,2.35,5.25,5.25,5.25v-.75Zm-4.5-4.5h.75V7.5h-1.5v9h.75Zm0-9h.75c0-2.07,1.68-3.75,3.75-3.75v-1.5c-2.9,0-5.25,2.35-5.25,5.25h.75Z"/>
</svg>
